X:1
T:Bell Table
Z: id:dc-waltz-1
M:3/4
L:1/8
K:D Major
Bc|d3 e d2|d2 c2 B2|A3 B A2|A2 G2 F2|!
G2 GA BG|A2 AB cA|G2 GA BG|A4 Bc|!
d3 e d2|d2 c2 B2|A3 B A2|A2 G2 F2|!
G2 GA BG|A2 AB cA|G2 F2 E2|D4:|!
fg|a3 b a2|a4 g2|f3 g f2|f2 e2 f2|!
g3 a g2|g2 f2 g2|a3 b a2|a4 fg|!
a3 b a2|a4 g2|f3 g f2|f2 e2 d2|!
B3 d g2|fa3 c2|ed3 c2|d4:|!

